X:2
T:Four
C:Miles Davis
L:1/4
M:C
I:linebreak $
K:Eb
B c |:"Eb" d/B/c/ d"Fm" B/ c |"Gbo" d/f/e/ d"Gm" B/ c |"Ebm" _d4 |"Ab7" z2 E F |$
"Fm" G/E/F/ G E/ F |"Gm" G/B/A/ G E/ F |"Abm" _G4 |"Db7" z2 F/G/A/=A/ |$"Gm" B2 E/G/ B |
"Gbm" =B =E"B7" _E2 |"Fm" z c"Fm/Eb" B A |"Dm" G2"G7" F/G/A/=A/ ||1$"Gm" B2 (3E G B |
"Gbm" =B =E"B7" _E2 |"Fm" z c B A |"E7" G2 z B/c/ :|2$"Gm" B/G/ B"Gbm" =B/A/ =B |"Fm" c A"E7" d B |
"Eb6" e4 |]

